!!!OTL: FAHR MER NET UEBER MEI ACKERLE
!!!ARE: Europa, Mitteleuropa, Deutschland, Thueringen
!!!SCT: E1005A
!!!YEM: Copyright 1995, estate of Helmut Schaffrath.
**kern
*ICvox
*Ivox
*M3/4
*k[f#]
*G:
=1
{4.b
8a
4a
=2
4cc
4b
4cc
=3
4dd
4dd
4dd}
=4
{4.b
8a
4a
=5
4cc
4b
4cc
=6
2dd
4r}
=7
{4.dd
8ee
4dd
=8
4cc
4dd
4cc
=9
4b
4b
4b}
=10
{4.dd
8ee
4dd
=11
4cc
4dd
4cc
=12
2b
4r}
==
!!!AGN: Tanz - Lied
!!!ONB: ESAC (Essen Associative Code) Database: ERK3
!!!AMT: simple triple
!!!AIN: vox
!!!EED: Helmut Schaffrath
!!!EEV: 1.0
*-
